images/client09.svg

<svg fill="none" height="200" viewBox="0 0 200 200" width="200" xmlns="http://www.w3.org/2000/svg"><g clip-rule="evenodd" fill-rule="evenodd"><path d="m130.951 93.3984c-2.509-.2575-6.352 2.1204-8.556 5.2898-2.207 3.1728-1.959 5.9668.55 6.2248 2.51.257 6.352-2.118 8.556-5.287 2.205-3.1758 1.957-5.9701-.55-6.2276zm-76.5923-2.788c-1.5363-.1462-3.6579 1.1953-4.7234 2.9819-1.0656 1.7866-.6775 3.3665.8588 3.5096s3.6579-1.1953 4.7234-2.9819c1.0656-1.7866.6807-3.3697-.8588-3.5096zm-19.358.9346 52.0625-22.8251c1.2755-.5977 2.8245-.6581 4.4149-.6358l.2735 27.9083c-.0381 4.0055 2.1788 4.0466 2.9963-.9473 3.168-19.2837 53.4711-46.9346 68.0901-12.6937 14.212 33.2806-45.691 63.2556-64.6931 40.9676l-6.476-.324.1559 10.878-36.4069-.156-.0134-10.868-16.4063-.255c-1.8671-.006-3.9632-.381-3.9632-2.591l-.035-28.458z" fill="#dfdfdf"/><path d="m130.952 93.3984c-2.51-.2575-6.352 2.1204-8.556 5.2898-2.208 3.1728-1.96 5.9668.55 6.2248 2.51.257 6.352-2.118 8.556-5.287 2.204-3.1758 1.956-5.9701-.55-6.2276zm-39.346-12.4903.1463 15.0843c-.0381 4.0055 2.1788 4.0466 2.9963-.9473 1.0973-6.6727 7.8374-14.3468 16.7884-20.1103l29.129-8.7295c9.227.6136 17.513 5.2326 22.17 16.1461 14.211 33.2806-45.692 63.2556-64.6936 40.9676l-6.476-.324.1559 10.878-36.4069-.156-.0134-10.869-16.4063-.254c-1.8671-.006-3.9632-.381-3.9632-2.591l-.0286-22.135 14.7078-4.4092c-.0286.0444-.054.0889-.0795.1335-1.0623 1.7898-.6775 3.3666.8588 3.5096 1.5363.1431 3.6579-1.1953 4.7234-2.9818.5599-.9378.7157-1.8184.5217-2.4638l35.8693-10.7481z" fill="#d2d2d2"/><path d="m130.951 93.3984c-2.509-.2575-6.352 2.1204-8.556 5.2898-2.207 3.1728-1.959 5.9668.55 6.2248 2.51.257 6.352-2.118 8.556-5.287 2.205-3.1758 1.957-5.9701-.55-6.2276zm-39.1421 3.7099c.3149 2.5463 1.8384 2.4637 2.6814-.8043l65.2817-19.5603c1.142 1.6499 2.176 3.5096 3.069 5.6077 14.212 33.2806-45.691 63.2556-64.6929 40.9676l-6.476-.324.1559 10.878-36.4069-.156-.0134-10.868-16.4063-.255c-1.8671-.006-3.9632-.381-3.9632-2.591l-.006-5.881 56.7764-17.0137z" fill="#bfbfbf"/><path d="m164.829 89.7775c3.441 30.0665-49.108 54.1545-66.6845 33.5415l-6.4761-.324.1559 10.878-36.4068-.156-.0134-10.868-.9002-.014 66.4011-19.9c.115 1.103.802 1.847 2.039 1.974 2.462.254 6.206-2.028 8.429-5.1088" fill="#b0b0b0"/><path d="m91.724 126.727.105 7.146-23.6171-.101zm69.725-20.892c-11.403 20.962-47.231 33.595-62.2216 18.641z" fill="#999"/><g fill="#fff"><path d="m149.867 132.465-6.221-15.987h3.813l4.402 11.832 4.263-11.832h3.727l-6.231 15.987"/><path d="m133.458 132.465v-13.279h-5.372v-2.708h14.393v2.708h-5.36v13.279"/></g></g></svg>

<svg width="200" height="200" viewBox="0 0 200 200" fill="none" xmlns="http://www.w3.org/2000/svg">
<path fill-rule="evenodd" clip-rule="evenodd" d="M130.951 93.3984C128.442 93.1409 124.599 95.5188 122.395 98.6882C120.188 101.861 120.436 104.655 122.945 104.913C125.455 105.17 129.297 102.795 131.501 99.626C133.706 96.4502 133.458 93.6559 130.951 93.3984V93.3984ZM54.3587 90.6104C52.8224 90.4642 50.7008 91.8057 49.6353 93.5923C48.5697 95.3789 48.9578 96.9588 50.4941 97.1019C52.0304 97.245 54.152 95.9066 55.2175 94.12C56.2831 92.3334 55.8982 90.7503 54.3587 90.6104ZM35.0007 91.545L87.0632 68.7199C88.3387 68.1222 89.8877 68.0618 91.4781 68.0841L91.7516 95.9924C91.7135 99.9979 93.9304 100.039 94.7479 95.0451C97.9159 75.7614 148.219 48.1105 162.838 82.3514C177.05 115.632 117.147 145.607 98.1449 123.319L91.6689 122.995L91.8248 133.873L55.4179 133.717L55.4045 122.849L38.9982 122.594C37.1311 122.588 35.035 122.213 35.035 120.003L35 91.545H35.0007Z" fill="#DFDFDF"/>
<path fill-rule="evenodd" clip-rule="evenodd" d="M130.952 93.3984C128.442 93.1409 124.6 95.5188 122.396 98.6882C120.188 101.861 120.436 104.655 122.946 104.913C125.456 105.17 129.298 102.795 131.502 99.626C133.706 96.4502 133.458 93.6559 130.952 93.3984V93.3984ZM91.606 80.9081L91.7523 95.9924C91.7142 99.9979 93.9311 100.039 94.7486 95.0451C95.8459 88.3724 102.586 80.6983 111.537 74.9348L140.666 66.2053C149.893 66.8189 158.179 71.4379 162.836 82.3514C177.047 115.632 117.144 145.607 98.1424 123.319L91.6664 122.995L91.8223 133.873L55.4154 133.717L55.402 122.848L38.9957 122.594C37.1286 122.588 35.0325 122.213 35.0325 120.003L35.0039 97.868L49.7117 93.4588C49.6831 93.5032 49.6577 93.5477 49.6322 93.5923C48.5699 95.3821 48.9547 96.9589 50.491 97.1019C52.0273 97.245 54.1489 95.9066 55.2144 94.1201C55.7743 93.1823 55.9301 92.3017 55.7361 91.6563L91.6054 80.9082L91.606 80.9081Z" fill="#D2D2D2"/>
<path fill-rule="evenodd" clip-rule="evenodd" d="M130.951 93.3984C128.442 93.1409 124.599 95.5188 122.395 98.6882C120.188 101.861 120.436 104.655 122.945 104.913C125.455 105.17 129.297 102.795 131.501 99.626C133.706 96.4502 133.458 93.6559 130.951 93.3984V93.3984ZM91.8089 97.1083C92.1238 99.6546 93.6473 99.572 94.4903 96.304L159.772 76.7437C160.914 78.3936 161.948 80.2533 162.841 82.3514C177.053 115.632 117.15 145.607 98.1481 123.319L91.6721 122.995L91.828 133.873L55.4211 133.717L55.4077 122.849L39.0014 122.594C37.1343 122.588 35.0382 122.213 35.0382 120.003L35.0322 114.122L91.8086 97.1083H91.8089Z" fill="#BFBFBF"/>
<path fill-rule="evenodd" clip-rule="evenodd" d="M164.829 89.7775C168.27 119.844 115.721 143.932 98.1445 123.319L91.6684 122.995L91.8243 133.873L55.4175 133.717L55.4041 122.849L54.5039 122.835L120.905 102.935C121.02 104.038 121.707 104.782 122.944 104.909C125.406 105.163 129.15 102.881 131.373 99.8002" fill="#B0B0B0"/>
<path fill-rule="evenodd" clip-rule="evenodd" d="M91.724 126.727L91.829 133.873L68.2119 133.772L91.724 126.727ZM161.449 105.835C150.046 126.797 114.218 139.43 99.2274 124.476L161.449 105.835V105.835Z" fill="#999999"/>
<path fill-rule="evenodd" clip-rule="evenodd" d="M149.867 132.465L143.646 116.478H147.459L151.861 128.31L156.124 116.478H159.851L153.62 132.465" fill="white"/>
<path fill-rule="evenodd" clip-rule="evenodd" d="M133.458 132.465V119.186H128.086V116.478H142.479V119.186H137.119V132.465" fill="white"/>
</svg>
